X: 20944
T: Joy To The Person Of My Love
R: reel
M: 4/4
K: Bminor
|:B2 FG A3 D|EFGA F3 F|EDCB, C3 C|(B,4 B,4):|
|:B,CDE F2 Bc|dBcA B2 FG|AFED|E3 E|(D4 D4):|
|:A2 FD A3 A|BB,DE F3 F|EDCB, C3 C|(B,6 B,6):|

